svgs/thin/game-board.svg

<svg xmlns="http://www.w3.org/2000/svg" viewBox="0 0 448 512"><!--! Font Awesome Pro 6.6.0 by @fontawesome - https://fontawesome.com License - https://fontawesome.com/license (Commercial License) Copyright 2024 Fonticons, Inc. --><path d="M64 48C37.5 48 16 69.5 16 96l0 320c0 26.5 21.5 48 48 48l320 0c26.5 0 48-21.5 48-48l0-320c0-26.5-21.5-48-48-48L64 48zM0 96C0 60.7 28.7 32 64 32l320 0c35.3 0 64 28.7 64 64l0 320c0 35.3-28.7 64-64 64L64 480c-35.3 0-64-28.7-64-64L0 96zm136 0l0 56 80 0 0-56c0-4.4 3.6-8 8-8s8 3.6 8 8l0 56 80 0 0-56c0-4.4 3.6-8 8-8s8 3.6 8 8l0 56 56 0c4.4 0 8 3.6 8 8s-3.6 8-8 8l-56 0 0 80 56 0c4.4 0 8 3.6 8 8s-3.6 8-8 8l-56 0 0 80 56 0c4.4 0 8 3.6 8 8s-3.6 8-8 8l-56 0 0 56c0 4.4-3.6 8-8 8s-8-3.6-8-8l0-56-80 0 0 56c0 4.4-3.6 8-8 8s-8-3.6-8-8l0-56-80 0 0 56c0 4.4-3.6 8-8 8s-8-3.6-8-8l0-56-56 0c-4.4 0-8-3.6-8-8s3.6-8 8-8l56 0 0-80-56 0c-4.4 0-8-3.6-8-8s3.6-8 8-8l56 0 0-80-56 0c-4.4 0-8-3.6-8-8s3.6-8 8-8l56 0 0-56c0-4.4 3.6-8 8-8s8 3.6 8 8zm0 152l80 0 0-80-80 0 0 80zm96 0l80 0 0-80-80 0 0 80zm0 16l0 80 80 0 0-80-80 0zm-16 0l-80 0 0 80 80 0 0-80z"/></svg>

<svg xmlns="http://www.w3.org/2000/svg" viewBox="0 0 448 512"><!--! Font Awesome Pro 6.4.0 by @fontawesome - https://fontawesome.com License - https://fontawesome.com/license (Commercial License) Copyright 2023 Fonticons, Inc. --><path d="M64 48C37.5 48 16 69.5 16 96V416c0 26.5 21.5 48 48 48H384c26.5 0 48-21.5 48-48V96c0-26.5-21.5-48-48-48H64zM0 96C0 60.7 28.7 32 64 32H384c35.3 0 64 28.7 64 64V416c0 35.3-28.7 64-64 64H64c-35.3 0-64-28.7-64-64V96zm136 0v56h80V96c0-4.4 3.6-8 8-8s8 3.6 8 8v56h80V96c0-4.4 3.6-8 8-8s8 3.6 8 8v56h56c4.4 0 8 3.6 8 8s-3.6 8-8 8H328v80h56c4.4 0 8 3.6 8 8s-3.6 8-8 8H328v80h56c4.4 0 8 3.6 8 8s-3.6 8-8 8H328v56c0 4.4-3.6 8-8 8s-8-3.6-8-8V360H232v56c0 4.4-3.6 8-8 8s-8-3.6-8-8V360H136v56c0 4.4-3.6 8-8 8s-8-3.6-8-8V360H64c-4.4 0-8-3.6-8-8s3.6-8 8-8h56V264H64c-4.4 0-8-3.6-8-8s3.6-8 8-8h56V168H64c-4.4 0-8-3.6-8-8s3.6-8 8-8h56V96c0-4.4 3.6-8 8-8s8 3.6 8 8zm0 152h80V168H136v80zm96 0h80V168H232v80zm0 16v80h80V264H232zm-16 0H136v80h80V264z"/></svg>
